icons/sleep.svg

<?xml version="1.0" encoding="UTF-8"?><svg xmlns="http://www.w3.org/2000/svg" viewBox="0 0 50 50"><g id="uuid-ba98ccfa-cee3-4033-8dd3-705188b7a058"><g><path d="M46.32,35.76c-.15-.15-.38-.19-.58-.1-3.01,1.47-6.21,2.22-9.51,2.22-11.95,0-21.67-9.72-21.67-21.67,0-3.43,.8-6.73,2.37-9.82,.1-.19,.06-.42-.09-.58s-.38-.19-.58-.1C8.41,9.56,3.54,17.36,3.54,26.07c0,12.5,10.17,22.67,22.67,22.67,8.56,0,16.3-4.75,20.2-12.4,.1-.19,.06-.42-.09-.58Zm-20.11,11.98c-11.95,0-21.67-9.72-21.67-21.67,0-7.83,4.12-14.89,10.86-18.76-1.22,2.83-1.83,5.81-1.83,8.9,0,12.5,10.17,22.67,22.67,22.67,2.95,0,5.83-.57,8.56-1.7-3.91,6.55-10.9,10.56-18.59,10.56Z"/><path d="M30.49,31.23h8.68c.07,0,.12-.06,.12-.12v-1.53c0-.07-.06-.12-.12-.12h-6.15l5.94-7.89s.03-.05,.03-.08v-1.32c0-.07-.06-.12-.12-.12h-8.29c-.07,0-.12,.06-.12,.12v1.55c0,.07,.06,.12,.12,.12h5.69l-5.88,7.81s-.02,.05-.02,.08v1.38c0,.07,.06,.12,.12,.12Z"/><path d="M22.33,17h6.14c.07,0,.12-.06,.12-.12v-1.08c0-.07-.06-.12-.12-.12h-4.27l4.15-5.51s.03-.05,.03-.08v-.94c0-.07-.06-.12-.12-.12h-5.86c-.07,0-.12,.06-.12,.12v1.09c0,.07,.06,.12,.12,.12h3.95l-4.11,5.46s-.02,.05-.02,.08v.97c0,.07,.06,.12,.12,.12Z"/><path d="M32.26,7.64h5.27c.07,0,.12-.06,.12-.12v-.93c0-.07-.06-.12-.12-.12h-3.63l3.54-4.7s.03-.05,.03-.08V.89c0-.07-.06-.12-.12-.12h-5.03c-.07,0-.12,.06-.12,.12v.94c0,.07,.06,.12,.12,.12h3.35l-3.51,4.66s-.02,.05-.02,.08v.83c0,.07,.06,.12,.12,.12Z"/></g></g><g id="uuid-97c35ac1-6df7-48ce-96c3-f405532266bc"><text transform="translate(.27 55.01)" font-family="Roboto-Regular, Roboto" font-size="6"><tspan x="0" y="0">sleep</tspan></text></g></svg>

<svg xmlns="http://www.w3.org/2000/svg" viewBox="0 0 50 50"><defs><style>.cls-1{font-size:6px;font-family:Roboto-Regular, Roboto;}</style></defs><g id="ICONS"><path d="M46.32,35.76a.49.49,0,0,0-.58-.1,21.44,21.44,0,0,1-9.5,2.22A21.7,21.7,0,0,1,14.56,16.21a21.45,21.45,0,0,1,2.37-9.82.5.5,0,0,0-.09-.58.52.52,0,0,0-.58-.1A22.66,22.66,0,1,0,46.41,36.33.49.49,0,0,0,46.32,35.76Zm-20.11,12A21.66,21.66,0,0,1,15.39,7.31a22.47,22.47,0,0,0-1.83,8.9A22.7,22.7,0,0,0,36.24,38.88a22.31,22.31,0,0,0,8.56-1.7A21.57,21.57,0,0,1,26.21,47.74Z"/><path d="M30.49,31.23h8.69a.12.12,0,0,0,.12-.12V29.58a.12.12,0,0,0-.12-.13H33L39,21.57a.11.11,0,0,0,0-.08V20.17a.13.13,0,0,0-.13-.13H30.58a.13.13,0,0,0-.12.13v1.55a.12.12,0,0,0,.12.12h5.7l-5.89,7.82a.14.14,0,0,0,0,.07v1.38A.12.12,0,0,0,30.49,31.23Z"/><path d="M22.33,17h6.13a.13.13,0,0,0,.13-.13V15.79a.12.12,0,0,0-.13-.12H24.19l4.16-5.51a.19.19,0,0,0,0-.08V9.15A.12.12,0,0,0,28.25,9H22.39a.12.12,0,0,0-.12.13v1.09a.12.12,0,0,0,.12.12h3.95l-4.11,5.47a.09.09,0,0,0,0,.07v1A.13.13,0,0,0,22.33,17Z"/><path d="M32.26,7.64h5.27a.12.12,0,0,0,.13-.12V6.59a.12.12,0,0,0-.13-.12H33.9l3.55-4.71a.14.14,0,0,0,0-.07V.89a.12.12,0,0,0-.12-.13h-5a.13.13,0,0,0-.13.13v.93a.13.13,0,0,0,.13.13h3.35L32.16,6.61a.19.19,0,0,0,0,.08v.83A.12.12,0,0,0,32.26,7.64Z"/></g><g id="LABELS"><text class="cls-1" transform="translate(0.27 55.01)">sleep</text></g></svg>
